img/image/design/time.svg

<svg xmlns="http://www.w3.org/2000/svg" fill="none" viewBox="0 0.55 17 17">
<g clip-path="url(#clip0_426_2953)">
<path d="M8.5 0.546875C3.81291 0.546875 0 4.35979 0 9.04688C0 13.734 3.81291 17.5469 8.5 17.5469C13.1871 17.5469 17 13.734 17 9.04688C17 4.35979 13.1871 0.546875 8.5 0.546875ZM12.5425 13.4434C12.4044 13.5816 12.223 13.6511 12.0417 13.6511C11.8604 13.6511 11.6789 13.5816 11.5409 13.4434L7.99923 9.90186C7.86603 9.76943 7.79171 9.58941 7.79171 9.40108V4.79688C7.79171 4.40518 8.10896 4.08858 8.5 4.08858C8.89104 4.08858 9.20829 4.40518 9.20829 4.79688V9.10783L12.5425 12.4419C12.8194 12.7189 12.8194 13.1665 12.5425 13.4434Z" fill="#F6BB1A"/>
</g>
<defs>
<clipPath id="clip0_426_2953">
<rect width="17" height="17" fill="white" transform="translate(0 0.546875)"/>
</clipPath>
</defs>
</svg>

<svg xmlns="http://www.w3.org/2000/svg" fill="none" viewBox="0 0.55 17 17"><g clip-path="url(#a)"><path d="M8.5.547C3.813.547 0 4.36 0 9.047c0 4.687 3.813 8.5 8.5 8.5 4.687 0 8.5-3.813 8.5-8.5 0-4.687-3.813-8.5-8.5-8.5Zm4.043 12.896a.706.706 0 0 1-1.002 0L7.999 9.902a.705.705 0 0 1-.207-.5V4.796a.708.708 0 1 1 1.416 0v4.31l3.335 3.335a.708.708 0 0 1 0 1.001Z" fill="#F6BB1A"/></g><defs><clipPath id="a"><path fill="#fff" transform="translate(0 .547)" d="M0 0h17v17H0z"/></clipPath></defs></svg>
